elide/concept/src/learn4.svg

<svg clip-rule="evenodd" fill-rule="evenodd" stroke-linejoin="round" stroke-miterlimit="2" viewBox="0 0 100 100" xmlns="http://www.w3.org/2000/svg"><path d="m0 0h100v100h-100z" fill="none"/><g fill="#01b7ff"><path d="m347.851 228.014c0-.661-.536-1.197-1.197-1.197-.839 0-1.957 0-2.797 0-.661 0-1.196.536-1.196 1.197v2.797c0 .661.535 1.197 1.196 1.197h2.797c.661 0 1.197-.536 1.197-1.197zm-2.726 2.771c-.089 0-.162-.028-.219-.084-.058-.056-.086-.123-.086-.202 0-.081.028-.15.086-.206.057-.056.13-.084.219-.084s.162.028.218.084.084.125.084.206c0 .079-.028.146-.084.202s-.129.084-.218.084zm.214-.859.012-.305c.175-.003.33-.032.464-.088.133-.056.239-.141.317-.256.077-.114.116-.26.116-.435 0-.171-.038-.315-.113-.434-.075-.118-.178-.209-.309-.273-.131-.063-.282-.095-.452-.095-.184 0-.341.034-.472.103s-.231.163-.3.283c-.069.119-.102.255-.099.408h.462c0-.12.036-.214.107-.284s.17-.105.298-.105c.122 0 .22.035.294.105s.11.166.11.288c0 .127-.031.224-.095.29s-.149.111-.256.134-.225.034-.355.034h-.176l.016.63z" transform="matrix(7.41388 0 0 7.41388 -2508.53536 -1649.47244)"/><path d="m201.898 232.793c.02-.066.081-.111.15-.111.068 0 .129.045.149.111.131.435.301.999.301.999s.606.21 1.072.371c.066.023.109.087.105.157-.005.07-.055.128-.123.143-.463.101-1.054.229-1.054.229s-.169.637-.3 1.131c-.018.068-.08.116-.15.116-.071 0-.133-.048-.151-.116-.131-.494-.299-1.131-.299-1.131s-.592-.128-1.055-.229c-.068-.015-.118-.073-.123-.143-.004-.07.039-.134.105-.157.466-.161 1.073-.371 1.073-.371s.169-.564.3-.999z" transform="matrix(6.413376894 0 0 6.413376894 -1282.45012724 -1457.80881424)"/><path d="m201.851 232.951c.026-.087.106-.146.197-.146.09 0 .17.059.196.146.121.402.254.841.254.841s.473.164.905.313c.087.031.143.115.138.207-.006.092-.072.169-.162.188-.425.093-.881.192-.881.192s-.131.494-.252.95c-.024.09-.105.153-.198.153-.094 0-.175-.063-.199-.153-.121-.456-.251-.95-.251-.95s-.457-.099-.882-.192c-.09-.019-.156-.096-.162-.188-.005-.092.051-.176.138-.207.432-.149.906-.313.906-.313s.132-.439.253-.841z" transform="matrix(4.86704170076 0 0 4.86704170076 -895.11196664 -1076.069615816)"/><circle cx="79.65203372038" cy="22.86228736478" r="4.21358861936" stroke-width="6.413376894"/></g></svg>

<?xml version="1.0" encoding="UTF-8" standalone="no"?>
<!DOCTYPE svg PUBLIC "-//W3C//DTD SVG 1.1//EN" "http://www.w3.org/Graphics/SVG/1.1/DTD/svg11.dtd">
<svg width="100%" height="100%" viewBox="0 0 100 100" version="1.1" xmlns="http://www.w3.org/2000/svg" xmlns:xlink="http://www.w3.org/1999/xlink" xml:space="preserve" xmlns:serif="http://www.serif.com/" style="fill-rule:evenodd;clip-rule:evenodd;stroke-linejoin:round;stroke-miterlimit:2;">
    <g transform="matrix(1,0,0,1,-450,0)">
        <rect id="Artboard4" x="450" y="0" width="100" height="100" style="fill:none;"/>
        <g id="Artboard41" serif:id="Artboard4">
            <g transform="matrix(7.41388,0,0,7.41388,-5602.37,-441.01)">
                <g transform="matrix(1,0,0,1,478,-163)">
                    <path d="M347.851,228.014C347.851,227.353 347.315,226.817 346.654,226.817C345.815,226.817 344.697,226.817 343.857,226.817C343.196,226.817 342.661,227.353 342.661,228.014C342.661,228.854 342.661,229.972 342.661,230.811C342.661,231.472 343.196,232.008 343.857,232.008C344.697,232.008 345.815,232.008 346.654,232.008C347.315,232.008 347.851,231.472 347.851,230.811L347.851,228.014ZM345.125,230.785C345.036,230.785 344.963,230.757 344.906,230.701C344.848,230.645 344.82,230.578 344.82,230.499C344.82,230.418 344.848,230.349 344.906,230.293C344.963,230.237 345.036,230.209 345.125,230.209C345.214,230.209 345.287,230.237 345.343,230.293C345.399,230.349 345.427,230.418 345.427,230.499C345.427,230.578 345.399,230.645 345.343,230.701C345.287,230.757 345.214,230.785 345.125,230.785ZM345.339,229.926L345.351,229.621C345.526,229.618 345.681,229.589 345.815,229.533C345.948,229.477 346.054,229.392 346.132,229.277C346.209,229.163 346.248,229.017 346.248,228.842C346.248,228.671 346.21,228.527 346.135,228.408C346.06,228.29 345.957,228.199 345.826,228.135C345.695,228.072 345.544,228.04 345.374,228.04C345.19,228.04 345.033,228.074 344.902,228.143C344.771,228.212 344.671,228.306 344.602,228.426C344.533,228.545 344.5,228.681 344.503,228.834L344.965,228.834C344.965,228.714 345.001,228.62 345.072,228.55C345.143,228.48 345.242,228.445 345.37,228.445C345.492,228.445 345.59,228.48 345.664,228.55C345.738,228.62 345.774,228.716 345.774,228.838C345.774,228.965 345.743,229.062 345.679,229.128C345.615,229.194 345.53,229.239 345.423,229.262C345.316,229.285 345.198,229.296 345.068,229.296L344.892,229.296L344.908,229.926L345.339,229.926Z" style="fill:rgb(1,183,255);"/>
                </g>
                <g transform="matrix(0.86505,0,0,0.86505,643.377,-137.148)">
                    <path d="M201.898,232.793C201.918,232.727 201.979,232.682 202.048,232.682C202.116,232.682 202.177,232.727 202.197,232.793C202.328,233.228 202.498,233.792 202.498,233.792C202.498,233.792 203.104,234.002 203.57,234.163C203.636,234.186 203.679,234.25 203.675,234.32C203.67,234.39 203.62,234.448 203.552,234.463C203.089,234.564 202.498,234.692 202.498,234.692C202.498,234.692 202.329,235.329 202.198,235.823C202.18,235.891 202.118,235.939 202.048,235.939C201.977,235.939 201.915,235.891 201.897,235.823C201.766,235.329 201.598,234.692 201.598,234.692C201.598,234.692 201.006,234.564 200.543,234.463C200.475,234.448 200.425,234.39 200.42,234.32C200.416,234.25 200.459,234.186 200.525,234.163C200.991,234.002 201.598,233.792 201.598,233.792C201.598,233.792 201.767,233.228 201.898,232.793Z" style="fill:rgb(1,183,255);"/>
                </g>
                <g transform="matrix(0.656477,0,0,0.656477,695.622,-85.6582)">
                    <path d="M201.851,232.951C201.877,232.864 201.957,232.805 202.048,232.805C202.138,232.805 202.218,232.864 202.244,232.951C202.365,233.353 202.498,233.792 202.498,233.792C202.498,233.792 202.971,233.956 203.403,234.105C203.49,234.136 203.546,234.22 203.541,234.312C203.535,234.404 203.469,234.481 203.379,234.5C202.954,234.593 202.498,234.692 202.498,234.692C202.498,234.692 202.367,235.186 202.246,235.642C202.222,235.732 202.141,235.795 202.048,235.795C201.954,235.795 201.873,235.732 201.849,235.642C201.728,235.186 201.598,234.692 201.598,234.692C201.598,234.692 201.141,234.593 200.716,234.5C200.626,234.481 200.56,234.404 200.554,234.312C200.549,234.22 200.605,234.136 200.692,234.105C201.124,233.956 201.598,233.792 201.598,233.792C201.598,233.792 201.73,233.353 201.851,232.951Z" style="fill:rgb(1,183,255);"/>
                </g>
                <g transform="matrix(0.86505,0,0,0.86505,645.451,-135.473)">
                    <circle cx="209.987" cy="228.936" r="0.657" style="fill:rgb(1,183,255);"/>
                </g>
            </g>
        </g>
    </g>
</svg>
